X:1
T:Lagrima
T:Lágrima
T:Preludio
T:Francisco Tárrega (1852-1909)
C:Francisco Tarrega (1852-1909)
%%score ( 1 2 3 )
L:1/8
Q:1/4=80
M:3/4
K:E
V:1 treble-8 nm="Guitare classique"
V:2 treble-8 
V:3 treble-8 
V:1
"^Andante." !4!g2 !4!a2 !4!b2 | f6 | !4!g2 !4!a2 !4!b2 | f6 |"^½C9" !4!e'2 !4!d'2"^½C7" !3!c'2 | %5
 b2"_rit."!2!x!0!e!3!f!1!a | g2 x4 | e4 z2!fine! ::[K:G] !2!g(!2!c'!1!b)!0!e"^½C2" f!2!g | !0!e6 | %10
 [GB]!4!e'!1!x!2!c' !3!F!4!a |"^C7" !2![^df]4 !0!B!2!f | g2 a2 !3!b2 | %13
 (!4!d'!2!c')!1!b!4!a!2!g!1!f | e2 !4!f2 x2 | e4 z2!D.C.! :| %16
V:2
!1!x!0!BxB bB |!4!x!0!B !3!AB !2!B,B |!1!x!0!BxB bB |!4!x!0!B !3!AB !2!B,B | e'e d'e c'f | %5
 b!3!g x4 | !3!g!0!e !1!c!2!fx!2!!4![=Ad] | !1!G4 x2 ::[K:G] B4 !3![A^d]2 | %9
x!3!!1![Ac] !2!!1![GB]!3!!1![FA] !1!!0![EG]!3!!1![FA] | x6 |x(!3!B !4!c)!3!B x2 | !3!gB !3!aB bB | %13
 x6 |x[GB]x!3!!1![Ac] B!3!A | G4 x2 :| %16
V:3
 E2 !2!F2 !2!G2 | !1!D6 | E2 !2!F2 !2!G2 | !1!D6 | !3!c2 B2 A2 | !2!B2 c4 | !0!B2 !3!^A2 !1!B,2 | %7
 !2!E2 E,2 z2 ::[K:G] E,4 B,2 | E,6 | E,2 A2 x2 | B,4 z2 | !1!E2 !1!F2 !1!G2 | A,6 | %14
 x2 x2 !2!B,!1!^D | !2!E2 E,2 x2 :| %16

